X:1
T:Title
%%score 1 2 3
L:1/8
M:3/2
K:C
V:1 treble-8 nm="Part_1"
V:2 treble-8 nm="Part_2"
V:3 treble-8 nm="Part_3"
V:1
 c4 c4 e4 | e6 c2 e2 f2 | d4 e2 g3 fed | c4 z4 e2 f2 | g3 f d2 f2 e2 c2 | (3c8 B2 c2 B2 A2 | c12 | %7
 z4 z4 g4 | g4 e6 c2 | c4 z4 g4 | a8 f4 | a4 g6 f2 | f8 e4 | f4 d4 f2 g2 | e4 f2 g4 e2 | d12 | %16
 e4 c6 A2 | G6 A2 B4 | c4 z4 c4 | d4 e6 c2 | c3 B c2 B4 A2 | c4 z4 e2 f2 | g4 e2 c2 d4 | c4 z4 g4 | %24
 a4 f2 g4 e2 | d4 z4 f4 | g4 e6 c2 | e4 d8 | c4 z4 g4 | a4 f2 g2 f4 | d2 f3 g a2 _b3 g | %31
 g6 fg f2 e2 | g12 |] %33
V:2
[K:F] c4 c4 c4 | c8 c4 | =B8 B4 | c6 A2 c2 B2 | G4 F6 E2 | C4 F8 | C12- | C12 | z12 | E4 E4 E4 | %10
 F8 F4 | c8 _B4 | A4 G8 | F12 | c12 | B4 B4 B4 | c8 d4 | _e8 d4 | c8 A2 F2 | F4 G8 | E4 D8 | C12 | %22
 z4 z4 B4 | c4 A2 B4 G2 | F4 z4 C4 | F4 E2 F4 D2 | C4 z4 c4 | c4 B8 | A4 G8 | F4 z4 c4 | d4 B6 G2 | %31
 B4 A8 | G12 |] %33
V:3
[K:F] C4 C4 C4 | C8 C4 | G8 G4 | C8 C4 | C4 D4 A4 | G4 F6 E2 | G4 z4 G4 | G4 E6 C2 | C12 | G12 | %10
 D4 D4 D4 | C8 E4 | F4 C8 | c4 A2 F2 GFED | C12 | G12 | C8 C4 | C8 G4 | C8 F4 | D4 C8 | G4 F6 E2 | %21
 G8 G4 | C8 G4 | C8 _E4 | D8 G4 | A6 F2 c2 B2 | c8 C4- | C4 G8 | z2 F2 E8 | D4 z2 D2 C4 | %30
 G2 D2 G8 | D4 c8 | d12 |] %33

